resources/images/icons/calendar.svg

<svg fill="none" height="24" viewBox="0 0 24 24" width="24" xmlns="http://www.w3.org/2000/svg"><path d="m9 2c.55228 0 1 .44772 1 1v1h4v-1c0-.55228.4477-1 1-1s1 .44772 1 1v1h3c1.1046 0 2 .89543 2 2v13c0 1.1046-.8954 2-2 2h-14c-1.10457 0-2-.8954-2-2v-13c0-1.10457.89543-2 2-2h3v-1c0-.55228.44772-1 1-1zm-1 4h-3v3h14v-3h-3v1c0 .55228-.4477 1-1 1s-1-.44772-1-1v-1h-4v1c0 .55228-.44772 1-1 1s-1-.44772-1-1zm11 5h-14v8h14z" fill="#0d0d0d" xmlns="http://www.w3.org/2000/svg"/></svg>

<svg fill="none" viewBox="0 0 24 24" height="24" width="24" xmlns="http://www.w3.org/2000/svg">
<path xmlns="http://www.w3.org/2000/svg" d="M9 2C9.55228 2 10 2.44772 10 3V4H14V3C14 2.44772 14.4477 2 15 2C15.5523 2 16 2.44772 16 3V4H19C20.1046 4 21 4.89543 21 6V19C21 20.1046 20.1046 21 19 21H5C3.89543 21 3 20.1046 3 19V6C3 4.89543 3.89543 4 5 4H8V3C8 2.44772 8.44772 2 9 2ZM8 6H5V9H19V6H16V7C16 7.55228 15.5523 8 15 8C14.4477 8 14 7.55228 14 7V6H10V7C10 7.55228 9.55228 8 9 8C8.44772 8 8 7.55228 8 7V6ZM19 11H5V19H19V11Z" fill="#0D0D0D"></path>
</svg>
